src/assets/flags/mm.svg

<?xml version="1.0" encoding="UTF-8"?>
<svg xmlns="http://www.w3.org/2000/svg" xmlns:xlink="http://www.w3.org/1999/xlink" width="25px" height="px" viewBox="0 0 25 19" version="1.1">
<g id="surface1">
<rect x="0" y="0" width="25" height="19" style="fill:rgb(99.607843%,79.607844%,0%);fill-opacity:1;stroke:none;"/>
<path style=" stroke:none;fill-rule:nonzero;fill:rgb(20.392157%,69.803923%,20%);fill-opacity:1;" d="M 0 6.332031 L 25 6.332031 L 25 19 L 0 19 Z M 0 6.332031 "/>
<path style=" stroke:none;fill-rule:nonzero;fill:rgb(91.764706%,15.686275%,22.352941%);fill-opacity:1;" d="M 0 12.667969 L 25 12.667969 L 25 19 L 0 19 Z M 0 12.667969 "/>
<path style=" stroke:none;fill-rule:nonzero;fill:rgb(100%,100%,100%);fill-opacity:1;" d="M 12.5 3.167969 L 14.574219 10.167969 L 10.425781 10.167969 Z M 12.5 3.167969 "/>
<path style=" stroke:none;fill-rule:nonzero;fill:rgb(100%,100%,100%);fill-opacity:1;" d="M 8.4375 15.832031 L 10.824219 8.933594 L 14.175781 11.402344 Z M 8.4375 15.832031 "/>
<path style=" stroke:none;fill-rule:nonzero;fill:rgb(100%,100%,100%);fill-opacity:1;" d="M 5.929688 8.003906 L 13.140625 8.171875 L 11.859375 12.167969 Z M 5.929688 8.003906 "/>
<path style=" stroke:none;fill-rule:nonzero;fill:rgb(100%,100%,100%);fill-opacity:1;" d="M 19.070312 8.003906 L 13.140625 12.167969 L 11.859375 8.171875 Z M 19.070312 8.003906 "/>
<path style=" stroke:none;fill-rule:nonzero;fill:rgb(100%,100%,100%);fill-opacity:1;" d="M 16.5625 15.832031 L 10.824219 11.402344 L 14.175781 8.933594 Z M 16.5625 15.832031 "/>
</g>
</svg>

<svg xmlns="http://www.w3.org/2000/svg" width="25" height="px" viewBox="0 0 25 19"><path d="M0 0h25v19H0z" style="fill:#fecb00;fill-opacity:1;stroke:none"/><path d="M0 6.332h25V19H0Zm0 0" style="stroke:none;fill-rule:nonzero;fill:#34b233;fill-opacity:1"/><path d="M0 12.668h25V19H0Zm0 0" style="stroke:none;fill-rule:nonzero;fill:#ea2839;fill-opacity:1"/><path d="m12.5 3.168 2.074 7h-4.148Zm0 0" style="stroke:none;fill-rule:nonzero;fill:#fff;fill-opacity:1"/><path d="m8.438 15.832 2.386-6.898 3.352 2.468Zm0 0" style="stroke:none;fill-rule:nonzero;fill:#fff;fill-opacity:1"/><path d="m5.93 8.004 7.21.168-1.28 3.996Zm0 0" style="stroke:none;fill-rule:nonzero;fill:#fff;fill-opacity:1"/><path d="m19.07 8.004-5.93 4.164-1.28-3.996Zm0 0" style="stroke:none;fill-rule:nonzero;fill:#fff;fill-opacity:1"/><path d="m16.563 15.832-5.739-4.43 3.352-2.468Zm0 0" style="stroke:none;fill-rule:nonzero;fill:#fff;fill-opacity:1"/></svg>
